X: 18
T: MaryCurrie
C: Sandy Nixon
R: jig
N: Suggested tune for Granville Market
B: RSCDS "A Second Book of Graded Scottish Country Dances" (Graded 2) p.37
Z: 2011 John Chambers <jc:trillian.mit.edu>
M: 6/8
L: 1/8
K: A
c |:\
"A"A2a "C#/A"aec | "E7"edB "A"c2A | "D"FAd "C#/A"Eec | "B7"BcA "E7"G2E |
"A"A2a "C#/A"aec | "E7"edB "F#m"c2A | "D"FAf "E7"efg |1 "A"aAA A2c :|2 "A"aAA A2"E7"c/B/ ||
|:\
"A"A2a "C#/A"A2a | "E7"edB "A"c2A | "D/Bm"fdB "A"ecA | "D#/B7"BAF "E7"G2E |
"A"A2a "F#m"A2a | "E7"edB "A7"c2A | "D"FAf "E7"efg |1 "A"aAA A2c/B/ :|2 "A"aAA A2 |]
